public/images/icons/prev.svg

<svg width="51" height="44" viewBox="0 0 51 44" fill="none" xmlns="http://www.w3.org/2000/svg">
<path d="M27.001 0.944336L0.000976682 21.8243L0.000976562 23.1923L27.001 44.0003L33.409 36.0803L16.345 24.0719V23.9999L50.401 23.9999V20.9999L16.345 20.9999V20.9279L33.409 8.86434L27.001 0.944336Z" fill="#001D3D"/>
</svg>

<svg width="51" height="44" fill="none" xmlns="http://www.w3.org/2000/svg"><path d="M27.001.944l-27 20.88v1.368l27 20.808 6.408-7.92-17.064-12.008V24h34.056v-3H16.345v-.072L33.409 8.864 27.001.944z" fill="#001D3D"/></svg>
